src/images/svg/symbols/stellar_flag.svg

<svg width="32" height="32" viewBox="0 0 32 32" fill="none" xmlns="http://www.w3.org/2000/svg">
<path d="M0 16C0 7.16344 7.16344 0 16 0C24.8366 0 32 7.16344 32 16C32 24.8366 24.8366 32 16 32C7.16344 32 0 24.8366 0 16Z" fill="black"/>
<path d="M24 9.85086V11.2332L8 19.3861V18.0032L8.58149 17.7067C8.79792 17.5964 8.97689 17.4246 9.0959 17.2128C9.21491 17.0011 9.26863 16.7588 9.2503 16.5166C9.23721 16.3456 9.23067 16.1739 9.23067 16.0015C9.23054 14.7533 9.57552 13.5293 10.2275 12.4649C10.8795 11.4006 11.813 10.5371 12.925 9.97015C14.037 9.40316 15.2841 9.15466 16.5285 9.25211C17.7729 9.34957 18.9661 9.78919 19.9763 10.5224L18.7091 11.1682C17.8661 10.6974 16.9148 10.455 15.9493 10.465C14.9839 10.475 14.0378 10.7371 13.2047 11.2252C12.3717 11.7134 11.6807 12.4107 11.2001 13.2481C10.7195 14.0855 10.466 15.0339 10.4647 15.9995C10.4648 16.2414 10.4806 16.4832 10.5121 16.7231L24 9.85086Z" fill="white"/>
<path d="M11.3698 19.0477L24 12.6169V13.9951L23.4178 14.2916C23.2016 14.402 23.0228 14.5739 22.9039 14.7856C22.7851 14.9974 22.7314 15.2395 22.7497 15.4816C22.7626 15.6536 22.7693 15.8275 22.7693 16.0015C22.7689 17.2495 22.4235 18.4732 21.7713 19.5372C21.119 20.6012 20.1853 21.4642 19.0733 22.0308C17.9613 22.5974 16.7143 22.8456 15.4701 22.7479C14.2259 22.6502 13.0329 22.2105 12.023 21.4772L13.2185 20.868L13.2862 20.8321C14.1293 21.3049 15.0814 21.5489 16.048 21.5399C17.0146 21.5309 17.9621 21.2693 18.7963 20.781C19.6305 20.2927 20.3225 19.5947 20.8036 18.7562C21.2847 17.9178 21.5381 16.9682 21.5387 16.0015C21.5386 15.758 21.5228 15.5147 21.4913 15.2731L8 22.1474V20.7658L11.3698 19.0477Z" fill="white"/>
</svg>

<svg width="32" height="32" fill="none" xmlns="http://www.w3.org/2000/svg"><path d="M0 16C0 7.163 7.163 0 16 0s16 7.163 16 16-7.163 16-16 16S0 24.837 0 16Z" fill="#000"/><path d="M24 9.85v1.383L8 19.386v-1.383l.581-.296a1.231 1.231 0 0 0 .67-1.19 6.77 6.77 0 0 1 10.726-5.994l-1.268.645a5.542 5.542 0 0 0-8.197 5.555L24 9.851ZM11.37 19.048 24 12.617v1.378l-.582.297a1.232 1.232 0 0 0-.668 1.19 6.77 6.77 0 0 1-10.727 5.996l1.196-.61.067-.036a5.54 5.54 0 0 0 8.205-5.559L8 22.147v-1.381l3.37-1.718Z" fill="#fff"/></svg>
